Simply-Purple-Circles/scalable/apps/qtpass-icon.svg

<svg xmlns="http://www.w3.org/2000/svg" width="48" height="48" viewBox="0 0 12.7 12.7"><path d="M6.34.07a6.29 6.29 0 0 0-6.29 6.3 6.29 6.29 0 0 0 6.3 6.28 6.29 6.29 0 0 0 6.28-6.29A6.29 6.29 0 0 0 6.34.07zm-.01.94a5.4 5.4 0 0 1 5.4 5.4 5.4 5.4 0 0 1-5.4 5.41 5.4 5.4 0 0 1-5.41-5.4A5.4 5.4 0 0 1 6.32 1zm.02.9c-.68 0-1.27.28-1.66.72a2.46 2.46 0 0 0-.59 1.63v.43a1.93 1.92 0 0 0-.78 3.19l3.03 3.02 3.03-3.02a1.93 1.92 0 0 0-.78-3.19v-.43c0-.6-.2-1.19-.6-1.63a2.19 2.19 0 0 0-1.65-.73zm0 .9c.44 0 .75.15.98.41.23.27.37.64.37 1.04v.37a1.93 1.92 0 0 0-1.35.93A1.93 1.92 0 0 0 5 4.63v-.37c0-.4.14-.77.37-1.04.23-.26.54-.42.98-.42zm0 3.36a.67.67 0 0 1 .67.68.67.67 0 0 1-.48.65l.48 1.37H5.68l.47-1.38a.67.67 0 0 1-.47-.64.67.67 0 0 1 .67-.68z" fill="#963996"/></svg>

<?xml version="1.0" encoding="UTF-8" standalone="no"?>
<svg
   xmlns:dc="http://purl.org/dc/elements/1.1/"
   xmlns:cc="http://creativecommons.org/ns#"
   xmlns:rdf="http://www.w3.org/1999/02/22-rdf-syntax-ns#"
   xmlns:svg="http://www.w3.org/2000/svg"
   xmlns="http://www.w3.org/2000/svg"
   xmlns:sodipodi="http://sodipodi.sourceforge.net/DTD/sodipodi-0.dtd"
   xmlns:inkscape="http://www.inkscape.org/namespaces/inkscape"
   width="48"
   height="48"
   viewBox="0 0 12.7 12.7"
   version="1.1"
   id="svg4"
   sodipodi:docname="qtpass-icon.svg"
   inkscape:version="0.92.4 (5da689c313, 2019-01-14)">
  <metadata
     id="metadata10">
    <rdf:RDF>
      <cc:Work
         rdf:about="">
        <dc:format>image/svg+xml</dc:format>
        <dc:type
           rdf:resource="http://purl.org/dc/dcmitype/StillImage" />
        <dc:title></dc:title>
      </cc:Work>
    </rdf:RDF>
  </metadata>
  <defs
     id="defs8" />
  <sodipodi:namedview
     pagecolor="#ffffff"
     bordercolor="#666666"
     borderopacity="1"
     objecttolerance="10"
     gridtolerance="10"
     guidetolerance="10"
     inkscape:pageopacity="0"
     inkscape:pageshadow="2"
     inkscape:window-width="1087"
     inkscape:window-height="480"
     id="namedview6"
     showgrid="false"
     inkscape:zoom="4.9166667"
     inkscape:cx="2.1355932"
     inkscape:cy="24"
     inkscape:window-x="0"
     inkscape:window-y="25"
     inkscape:window-maximized="0"
     inkscape:current-layer="svg4" />
  <path
     d="M 6.34,0.07 A 6.29,6.29 0 0 0 0.05,6.37 6.29,6.29 0 0 0 6.35,12.65 6.29,6.29 0 0 0 12.63,6.36 6.29,6.29 0 0 0 6.34,0.07 Z M 6.33,1.01 a 5.4,5.4 0 0 1 5.4,5.4 5.4,5.4 0 0 1 -5.4,5.41 A 5.4,5.4 0 0 1 0.92,6.42 5.4,5.4 0 0 1 6.32,1 Z m 0.02,0.9 C 5.67,1.91 5.08,2.19 4.69,2.63 A 2.46,2.46 0 0 0 4.1,4.26 V 4.69 A 1.93,1.92 0 0 0 3.32,7.88 L 6.35,10.9 9.38,7.88 A 1.93,1.92 0 0 0 8.6,4.69 V 4.26 C 8.6,3.66 8.4,3.07 8,2.63 A 2.19,2.19 0 0 0 6.35,1.9 Z m 0,0.9 C 6.79,2.81 7.1,2.96 7.33,3.22 7.56,3.49 7.7,3.86 7.7,4.26 V 4.63 A 1.93,1.92 0 0 0 6.35,5.56 1.93,1.92 0 0 0 5,4.63 V 4.26 C 5,3.86 5.14,3.49 5.37,3.22 5.6,2.96 5.91,2.8 6.35,2.8 Z m 0,3.36 A 0.67,0.67 0 0 1 7.02,6.85 0.67,0.67 0 0 1 6.54,7.5 L 7.02,8.87 H 5.68 L 6.15,7.49 A 0.67,0.67 0 0 1 5.68,6.85 0.67,0.67 0 0 1 6.35,6.17 Z"
     id="path2"
     inkscape:connector-curvature="0"
     style="fill:#963996" />
</svg>
